docs/assets/images/simple-illustration__money-receipt.svg

<svg width="48" height="48" viewBox="0 0 48 48" fill="none" xmlns="http://www.w3.org/2000/svg">
<path d="M42.3531 31.412L45.5296 30.3531L25.765 15.8826C25.765 15.8826 24.2207 13.2248 24.0003 12.0002C23.7798 10.7756 23.2944 8.82373 23.2944 8.82373L21.1767 12.3531L19.0591 10.5884L17.4519 13.501L14.8238 12.0002L13.412 14.8237L10.5885 13.059L9.52968 15.8826L7.0591 14.4708L5.64733 16.5884L2.8238 15.1767C2.8238 15.1767 2.76938 20.4205 5.6725 22.8697C8.57562 25.3189 26.8237 37.059 26.8237 37.059L42.3531 31.412Z" fill="#FFFAF0"/>
<path d="M5.67343 22.8207C4.63468 21.9522 2.66822 19.3319 2.83353 15.2657L5.67343 16.8522L6.89475 14.3207L9.4435 15.853L10.6476 13.1463L13.4776 14.829L14.8075 11.8806L17.4697 13.5337L18.923 10.6592C18.923 10.6592 21.1732 12.2334 21.4199 12.3469C21.637 10.8467 23.4653 8.4707 23.4653 8.4707" stroke="#002140" stroke-width="0.705882" stroke-linecap="round" stroke-linejoin="round"/>
<path d="M26.4237 16.3415C25.5651 15.7691 24.1192 14.5009 23.4629 8.4707" stroke="#002140" stroke-width="0.705882" stroke-linecap="round" stroke-linejoin="round"/>
<path d="M26.0189 16.0405L45.459 30.5065L25.1134 37.2892L5.67334 22.8207" stroke="#002140" stroke-width="0.705882" stroke-linecap="round" stroke-linejoin="round"/>
<path d="M18.2496 19.9834L4.06738 28.508L26.567 39.4432L40.9638 30.6645L18.2496 19.9834Z" fill="#00B268"/>
<path d="M18.4554 24.352C19.4233 24.1411 20.0942 23.4477 19.9538 22.8033C19.8134 22.1589 18.9149 21.8075 17.947 22.0183C16.979 22.2292 16.3081 22.9226 16.4485 23.567C16.5889 24.2114 17.4874 24.5628 18.4554 24.352Z" fill="#FED607"/>
<path d="M10.8818 29.061C11.7592 28.8699 12.3567 28.1925 12.2163 27.5481C12.0759 26.9037 11.2508 26.5362 10.3734 26.7274C9.49596 26.9185 8.89847 27.5959 9.03886 28.2403C9.17925 28.8847 10.0043 29.2522 10.8818 29.061Z" fill="#FED607"/>
<path d="M34.56 32.4411C35.4374 32.25 36.0349 31.5726 35.8945 30.9282C35.7541 30.2838 34.929 29.9164 34.0516 30.1075C33.1742 30.2987 32.5767 30.976 32.7171 31.6204C32.8575 32.2648 33.6826 32.6323 34.56 32.4411Z" fill="#FED607"/>
<path d="M40.8109 30.9012L18.104 19.7834L3.83301 28.5178L26.6657 39.4209L40.8109 30.9012Z" stroke="#002140" stroke-width="0.705882" stroke-linecap="round" stroke-linejoin="round"/>
<path d="M10.9002 29.1388C11.9147 28.9178 12.6029 28.1223 12.4373 27.362C12.2717 26.6018 11.315 26.1647 10.3004 26.3857C9.28584 26.6067 8.59764 27.4022 8.76327 28.1624C8.92889 28.9227 9.88561 29.3598 10.9002 29.1388Z" stroke="#002140" stroke-width="0.705882" stroke-linecap="round" stroke-linejoin="round"/>
<path d="M34.4719 32.6112C35.4865 32.3902 36.1747 31.5947 36.0091 30.8345C35.8435 30.0742 34.8867 29.6371 33.8722 29.8581C32.8576 30.0791 32.1694 30.8746 32.335 31.6349C32.5007 32.3951 33.4574 32.8322 34.4719 32.6112Z" stroke="#002140" stroke-width="0.705882" stroke-linecap="round" stroke-linejoin="round"/>
<path d="M18.4597 24.5023C19.4743 24.2813 20.1625 23.4858 19.9969 22.7256C19.8312 21.9653 18.8745 21.5282 17.86 21.7492C16.8454 21.9702 16.1572 22.7657 16.3228 23.526C16.4885 24.2862 17.4452 24.7234 18.4597 24.5023Z" stroke="#002140" stroke-width="0.705882" stroke-linecap="round" stroke-linejoin="round"/>
<path d="M22.8092 16.4009L7.13672 21.713L26.7915 37.1857L42.7304 31.6736L22.8092 16.4009Z" fill="#00B268"/>
<path d="M22.0789 20.7163C23.0696 20.7163 23.8727 20.1816 23.8727 19.5221C23.8727 18.8625 23.0696 18.3279 22.0789 18.3279C21.0882 18.3279 20.2852 18.8625 20.2852 19.5221C20.2852 20.1816 21.0882 20.7163 22.0789 20.7163Z" fill="#FED607"/>
<path d="M13.6777 23.704C14.5757 23.704 15.3037 23.1694 15.3037 22.5099C15.3037 21.8503 14.5757 21.3157 13.6777 21.3157C12.7797 21.3157 12.0518 21.8503 12.0518 22.5099C12.0518 23.1694 12.7797 23.704 13.6777 23.704Z" fill="#FED607"/>
<path d="M27.7217 34.7282C28.6197 34.7282 29.3476 34.1936 29.3476 33.534C29.3476 32.8745 28.6197 32.3398 27.7217 32.3398C26.8237 32.3398 26.0957 32.8745 26.0957 33.534C26.0957 34.1936 26.8237 34.7282 27.7217 34.7282Z" fill="#FED607"/>
<path d="M36.0933 32.0461C36.9913 32.0461 37.7192 31.5114 37.7192 30.8519C37.7192 30.1924 36.9913 29.6577 36.0933 29.6577C35.1953 29.6577 34.4673 30.1924 34.4673 30.8519C34.4673 31.5114 35.1953 32.0461 36.0933 32.0461Z" fill="#FED607"/>
<path d="M27.9213 24.9008C27.9213 24.9008 23.3395 21.8462 21.1485 22.9096C18.9575 23.973 20.808 27.489 21.9455 28.355C23.0829 29.2211 26.6605 31.2097 28.7849 30.2154C30.9093 29.221 28.9848 25.4337 27.9213 24.9032V24.9008Z" fill="#FED607"/>
<path d="M42.5305 31.8734L22.7105 16.1763L6.90479 21.6735L26.8951 37.1856L42.5305 31.8734Z" stroke="#002140" stroke-width="0.705882" stroke-linecap="round" stroke-linejoin="round"/>
<path d="M13.6799 23.7855C14.7183 23.7855 15.56 23.1547 15.56 22.3766C15.56 21.5985 14.7183 20.9678 13.6799 20.9678C12.6416 20.9678 11.7998 21.5985 11.7998 22.3766C11.7998 23.1547 12.6416 23.7855 13.6799 23.7855Z" stroke="#002140" stroke-width="0.705882" stroke-linecap="round" stroke-linejoin="round"/>
<path d="M27.7214 34.9427C28.7598 34.9427 29.6015 34.3119 29.6015 33.5338C29.6015 32.7558 28.7598 32.125 27.7214 32.125C26.6831 32.125 25.8413 32.7558 25.8413 33.5338C25.8413 34.3119 26.6831 34.9427 27.7214 34.9427Z" stroke="#002140" stroke-width="0.705882" stroke-linecap="round" stroke-linejoin="round"/>
<path d="M35.9699 32.1942C37.0083 32.1942 37.8501 31.5634 37.8501 30.7853C37.8501 30.0072 37.0083 29.3765 35.9699 29.3765C34.9316 29.3765 34.0898 30.0072 34.0898 30.7853C34.0898 31.5634 34.9316 32.1942 35.9699 32.1942Z" stroke="#002140" stroke-width="0.705882" stroke-linecap="round" stroke-linejoin="round"/>
<path d="M22.0515 20.8643C23.0898 20.8643 23.9316 20.2336 23.9316 19.4555C23.9316 18.6774 23.0898 18.0466 22.0515 18.0466C21.0131 18.0466 20.1714 18.6774 20.1714 19.4555C20.1714 20.2336 21.0131 20.8643 22.0515 20.8643Z" stroke="#002140" stroke-width="0.705882" stroke-linecap="round" stroke-linejoin="round"/>
<path d="M29.492 29.5231C30.4344 28.0409 29.0936 25.5009 26.4971 23.85C23.9006 22.199 21.0318 22.0622 20.0893 23.5445C19.1468 25.0267 20.4877 27.5666 23.0841 29.2176C25.6806 30.8685 28.5495 31.0053 29.492 29.5231Z" stroke="#002140" stroke-width="0.705882" stroke-linecap="round" stroke-linejoin="round"/>
<path d="M23.7661 21.624C23.7661 21.624 24.7407 23.6225 31.3556 23.4177C37.9705 23.2129 38.7379 21.9299 38.7379 21.5203C38.7379 21.1108 35.7129 19.7266 31.7134 19.7759C27.7138 19.8253 23.9191 20.2891 23.7661 21.6215V21.624Z" fill="#FED607"/>
<path d="M24.3213 21.012C24.9628 21.4635 25.8091 21.5079 26.5838 21.392C27.3586 21.276 28.1086 21.0169 28.8883 20.9207C29.7889 20.8097 30.6993 20.9182 31.6048 20.9182C31.97 20.9182 32.35 20.896 32.6757 20.7283C33.0014 20.5605 33.258 20.2101 33.2111 19.8474C33.2111 19.8474 30.4649 19.7487 28.3726 19.9091C26.2779 20.0695 24.3213 21.0095 24.3213 21.0095V21.012Z" fill="#FFED8F"/>
<path d="M23.8696 21.9842V24.19C23.8696 24.19 26.638 25.6778 31.6121 25.6778C36.5862 25.6778 38.7896 24.0888 38.7896 24.0888V21.8831C38.7896 21.8831 36.4826 23.6275 31.3555 23.4202C26.2284 23.2129 24.484 22.3938 23.8696 21.9842Z" fill="#D18000"/>
<path d="M31.3037 23.3338C35.4381 23.3338 38.7896 22.5528 38.7896 21.5894C38.7896 20.626 35.4381 19.845 31.3037 19.845C27.1694 19.845 23.8179 20.626 23.8179 21.5894C23.8179 22.5528 27.1694 23.3338 31.3037 23.3338Z" stroke="#002140" stroke-width="0.705882" stroke-linecap="round" stroke-linejoin="round"/>
<path d="M23.8179 21.5894V23.879C23.8179 24.8413 27.1685 25.6234 31.3037 25.6234C35.439 25.6234 38.7896 24.8438 38.7896 23.879V21.5894" stroke="#002140" stroke-width="0.705882" stroke-linecap="round" stroke-linejoin="round"/>
<path d="M31.3383 22.1052C32.9244 22.1052 34.2103 21.8456 34.2103 21.5254C34.2103 21.2052 32.9244 20.9456 31.3383 20.9456C29.7521 20.9456 28.4663 21.2052 28.4663 21.5254C28.4663 21.8456 29.7521 22.1052 31.3383 22.1052Z" stroke="#D18000" stroke-width="0.705882" stroke-miterlimit="10"/>
<path d="M7.55612 22.3889L6.49023 23.1266L8.94769 25.0906L10.174 24.2715L7.55612 22.3889Z" fill="#002140"/>
<path d="M38.0918 24.7625L39.5648 26.0726C39.5648 26.0726 36.9445 26.8918 36.1253 26.8918L34.6523 25.5816L38.0918 24.7625Z" fill="#002140"/>
</svg>

<svg xmlns="http://www.w3.org/2000/svg" width="48" height="48" fill="none" viewBox="0 0 48 48"><path fill="#fffaf0" d="m42.353 31.412 3.177-1.059-19.765-14.47S24.221 13.225 24 12c-.22-1.224-.706-3.176-.706-3.176l-2.117 3.53-2.118-1.766-1.607 2.913-2.628-1.5-1.412 2.823-2.824-1.765-1.058 2.824-2.47-1.412-1.413 2.117-2.823-1.411s-.055 5.244 2.849 7.693c2.903 2.449 21.15 14.189 21.15 14.189z"/><path stroke="#002140" stroke-linecap="round" stroke-linejoin="round" stroke-width=".706" d="M5.673 22.82c-1.038-.868-3.005-3.488-2.84-7.554l2.84 1.586 1.222-2.531 2.549 1.532 1.204-2.707 2.83 1.683 1.33-2.948 2.662 1.653 1.453-2.875s2.25 1.574 2.497 1.688c.217-1.5 2.045-3.876 2.045-3.876"/><path stroke="#002140" stroke-linecap="round" stroke-linejoin="round" stroke-width=".706" d="M26.424 16.342c-.859-.573-2.305-1.841-2.961-7.871"/><path stroke="#002140" stroke-linecap="round" stroke-linejoin="round" stroke-width=".706" d="m26.019 16.04 19.44 14.467-20.346 6.782-19.44-14.468"/><path fill="#00b268" d="M18.25 19.983 4.067 28.508l22.5 10.935 14.397-8.778z"/><path fill="#fed607" d="M18.455 24.352c.968-.21 1.64-.904 1.499-1.549s-1.04-.995-2.007-.785c-.968.211-1.639.905-1.498 1.549.14.644 1.038.996 2.006.785m-7.573 4.709c.877-.191 1.475-.869 1.334-1.513-.14-.644-.965-1.012-1.843-.82-.877.19-1.475.868-1.334 1.512.14.645.965 1.012 1.843.821m23.678 3.38c.877-.191 1.475-.868 1.334-1.513-.14-.644-.965-1.012-1.842-.82-.878.19-1.475.868-1.335 1.512.14.645.966 1.012 1.843.821"/><path stroke="#002140" stroke-linecap="round" stroke-linejoin="round" stroke-width=".706" d="M40.81 30.901 18.105 19.783 3.833 28.518 26.666 39.42z"/><path stroke="#002140" stroke-linecap="round" stroke-linejoin="round" stroke-width=".706" d="M10.9 29.139c1.015-.221 1.703-1.017 1.537-1.777-.165-.76-1.122-1.197-2.137-.976-1.014.22-1.702 1.016-1.537 1.776s1.123 1.198 2.137.977m23.572 3.472c1.014-.22 1.703-1.016 1.537-1.776s-1.122-1.198-2.137-.977-1.703 1.017-1.537 1.777 1.122 1.197 2.137.976M18.46 24.502c1.014-.22 1.703-1.016 1.537-1.776s-1.122-1.198-2.137-.977-1.703 1.017-1.537 1.777c.165.76 1.122 1.197 2.137.976"/><path fill="#00b268" d="M22.81 16.4 7.136 21.714l19.655 15.473 15.938-5.512z"/><path fill="#fed607" d="M22.079 20.716c.99 0 1.794-.534 1.794-1.194s-.803-1.194-1.794-1.194c-.99 0-1.794.535-1.794 1.194 0 .66.803 1.194 1.794 1.194m-8.401 2.988c.898 0 1.626-.535 1.626-1.194 0-.66-.728-1.194-1.626-1.194s-1.626.534-1.626 1.194.728 1.194 1.626 1.194m14.044 11.024c.898 0 1.626-.534 1.626-1.194s-.728-1.194-1.626-1.194-1.626.534-1.626 1.194.728 1.194 1.626 1.194m8.371-2.682c.898 0 1.626-.535 1.626-1.194 0-.66-.728-1.194-1.626-1.194s-1.626.534-1.626 1.194.728 1.194 1.626 1.194M27.921 24.9s-4.581-3.054-6.773-1.99c-2.19 1.063-.34 4.579.797 5.445s4.715 2.855 6.84 1.86.2-4.781-.864-5.312z"/><path stroke="#002140" stroke-linecap="round" stroke-linejoin="round" stroke-width=".706" d="M42.53 31.873 22.71 16.176 6.906 21.674l19.99 15.512z"/><path stroke="#002140" stroke-linecap="round" stroke-linejoin="round" stroke-width=".706" d="M13.68 23.786c1.038 0 1.88-.631 1.88-1.41 0-.777-.842-1.408-1.88-1.408s-1.88.63-1.88 1.409c0 .778.842 1.409 1.88 1.409m14.041 11.157c1.039 0 1.88-.631 1.88-1.41 0-.777-.841-1.408-1.88-1.408s-1.88.63-1.88 1.409c0 .778.842 1.409 1.88 1.409m8.249-2.749c1.038 0 1.88-.63 1.88-1.409 0-.778-.842-1.408-1.88-1.408s-1.88.63-1.88 1.408.842 1.41 1.88 1.41M22.052 20.864c1.038 0 1.88-.63 1.88-1.408 0-.779-.842-1.41-1.88-1.41-1.039 0-1.88.631-1.88 1.41s.841 1.408 1.88 1.408m7.44 8.659c.942-1.482-.398-4.022-2.995-5.673s-5.465-1.788-6.408-.306c-.942 1.483.399 4.023 2.995 5.674 2.597 1.65 5.465 1.787 6.408.305"/><path fill="#fed607" d="M23.766 21.624s.975 1.999 7.59 1.794 7.382-1.488 7.382-1.898-3.025-1.793-7.025-1.744c-4 .05-7.794.513-7.947 1.846z"/><path fill="#ffed8f" d="M24.321 21.012c.642.451 1.488.496 2.263.38s1.525-.375 2.304-.471c.9-.111 1.811-.003 2.717-.003.365 0 .745-.022 1.07-.19s.583-.518.536-.88c0 0-2.746-.1-4.838.061-2.095.16-4.052 1.1-4.052 1.1z"/><path fill="#d18000" d="M23.87 21.984v2.206s2.768 1.488 7.742 1.488 7.178-1.59 7.178-1.59v-2.205s-2.307 1.745-7.434 1.537c-5.128-.207-6.872-1.026-7.486-1.436"/><path stroke="#002140" stroke-linecap="round" stroke-linejoin="round" stroke-width=".706" d="M31.304 23.334c4.134 0 7.486-.781 7.486-1.745 0-.963-3.352-1.744-7.486-1.744s-7.486.781-7.486 1.744c0 .964 3.351 1.745 7.486 1.745"/><path stroke="#002140" stroke-linecap="round" stroke-linejoin="round" stroke-width=".706" d="M23.818 21.59v2.289c0 .962 3.35 1.744 7.486 1.744s7.486-.78 7.486-1.744v-2.29"/><path stroke="#d18000" stroke-miterlimit="10" stroke-width=".706" d="M31.338 22.105c1.586 0 2.872-.26 2.872-.58s-1.286-.58-2.872-.58-2.872.26-2.872.58 1.286.58 2.872.58Z"/><path fill="#002140" d="m7.556 22.389-1.066.738 2.458 1.964 1.226-.82zm30.536 2.374 1.473 1.31s-2.62.819-3.44.819l-1.473-1.31z"/></svg>
